output_color_squares/color_grid_Kigali.svg

<?xml version="1.0" encoding="utf-8" standalone="no"?>
<!DOCTYPE svg PUBLIC "-//W3C//DTD SVG 1.1//EN"
  "http://www.w3.org/Graphics/SVG/1.1/DTD/svg11.dtd">
<svg xmlns:xlink="http://www.w3.org/1999/xlink" width="1440pt" height="72pt" viewBox="0 0 1440 72" xmlns="http://www.w3.org/2000/svg" version="1.1">
 <metadata>
  <rdf:RDF xmlns:dc="http://purl.org/dc/elements/1.1/" xmlns:cc="http://creativecommons.org/ns#" xmlns:rdf="http://www.w3.org/1999/02/22-rdf-syntax-ns#">
   <cc:Work>
    <dc:type rdf:resource="http://purl.org/dc/dcmitype/StillImage"/>
    <dc:date>2025-05-04T17:21:05.989467</dc:date>
    <dc:format>image/svg+xml</dc:format>
    <dc:creator>
     <cc:Agent>
      <dc:title>Matplotlib v3.9.2, https://matplotlib.org/</dc:title>
     </cc:Agent>
    </dc:creator>
   </cc:Work>
  </rdf:RDF>
 </metadata>
 <defs>
  <style type="text/css">*{stroke-linejoin: round; stroke-linecap: butt}</style>
 </defs>
 <g id="figure_1">
  <g id="patch_1">
   <path d="M 0 72 
L 1440 72 
L 1440 0 
L 0 0 
z
" style="fill: #ffffff"/>
  </g>
  <g id="axes_1">
   <g id="patch_2">
    <path d="M 10.8 61.2 
L 81.72 61.2 
L 81.72 10.8 
L 10.8 10.8 
z
" clip-path="url(#pcf4010774c)" style="fill: #312d2f; stroke: #312d2f; stroke-linejoin: miter"/>
   </g>
   <g id="patch_3">
    <path d="M 81.72 61.2 
L 152.64 61.2 
L 152.64 10.8 
L 81.72 10.8 
z
" clip-path="url(#pcf4010774c)" style="fill: #ccc8c1; stroke: #ccc8c1; stroke-linejoin: miter"/>
   </g>
   <g id="patch_4">
    <path d="M 152.64 61.2 
L 223.56 61.2 
L 223.56 10.8 
L 152.64 10.8 
z
" clip-path="url(#pcf4010774c)" style="fill: #ccc8c1; stroke: #ccc8c1; stroke-linejoin: miter"/>
   </g>
   <g id="patch_5">
    <path d="M 223.56 61.2 
L 294.48 61.2 
L 294.48 10.8 
L 223.56 10.8 
z
" clip-path="url(#pcf4010774c)" style="fill: #c2baa8; stroke: #c2baa8; stroke-linejoin: miter"/>
   </g>
   <g id="patch_6">
    <path d="M 294.48 61.2 
L 365.4 61.2 
L 365.4 10.8 
L 294.48 10.8 
z
" clip-path="url(#pcf4010774c)" style="fill: #c2b7ab; stroke: #c2b7ab; stroke-linejoin: miter"/>
   </g>
   <g id="patch_7">
    <path d="M 365.4 61.2 
L 436.32 61.2 
L 436.32 10.8 
L 365.4 10.8 
z
" clip-path="url(#pcf4010774c)" style="fill: #193141; stroke: #193141; stroke-linejoin: miter"/>
   </g>
   <g id="patch_8">
    <path d="M 436.32 61.2 
L 507.24 61.2 
L 507.24 10.8 
L 436.32 10.8 
z
" clip-path="url(#pcf4010774c)" style="fill: #b1a37d; stroke: #b1a37d; stroke-linejoin: miter"/>
   </g>
   <g id="patch_9">
    <path d="M 507.24 61.2 
L 578.16 61.2 
L 578.16 10.8 
L 507.24 10.8 
z
" clip-path="url(#pcf4010774c)" style="fill: #c8c3bf; stroke: #c8c3bf; stroke-linejoin: miter"/>
   </g>
  </g>
 </g>
 <defs>
  <clipPath id="pcf4010774c">
   <rect x="10.8" y="10.8" width="1418.4" height="50.4"/>
  </clipPath>
 </defs>
</svg>

<?xml version="1.0" encoding="UTF-8"?>
<svg xmlns="http://www.w3.org/2000/svg" xmlns:xlink="http://www.w3.org/1999/xlink" version="1.1" viewBox="0 0 596 72">
  <defs>
    <style>
      .cls-1 {
        fill: none;
      }

      .cls-2 {
        fill: #c8c3bf;
        stroke: #c8c3bf;
      }

      .cls-3 {
        fill: #c2baa8;
        stroke: #c2baa8;
      }

      .cls-4 {
        clip-path: url(#clippath-1);
      }

      .cls-5 {
        clip-path: url(#clippath-3);
      }

      .cls-6 {
        clip-path: url(#clippath-4);
      }

      .cls-7 {
        clip-path: url(#clippath-2);
      }

      .cls-8 {
        clip-path: url(#clippath-7);
      }

      .cls-9 {
        clip-path: url(#clippath-6);
      }

      .cls-10 {
        clip-path: url(#clippath-5);
      }

      .cls-11 {
        fill: #b1a37d;
        stroke: #b1a37d;
      }

      .cls-12 {
        fill: #ccc8c1;
        stroke: #ccc8c1;
      }

      .cls-13 {
        fill: #c2b7ab;
        stroke: #c2b7ab;
      }

      .cls-14 {
        fill: #312d2f;
        stroke: #312d2f;
      }

      .cls-15 {
        fill: #193141;
        stroke: #193141;
      }

      .cls-16 {
        clip-path: url(#clippath);
      }
    </style>
    <clipPath id="clippath">
      <rect class="cls-1" x="10.8" y="10.8" width="1418.4" height="50.4"/>
    </clipPath>
    <clipPath id="clippath-1">
      <rect class="cls-1" x="10.8" y="10.8" width="1418.4" height="50.4"/>
    </clipPath>
    <clipPath id="clippath-2">
      <rect class="cls-1" x="10.8" y="10.8" width="1418.4" height="50.4"/>
    </clipPath>
    <clipPath id="clippath-3">
      <rect class="cls-1" x="10.8" y="10.8" width="1418.4" height="50.4"/>
    </clipPath>
    <clipPath id="clippath-4">
      <rect class="cls-1" x="10.8" y="10.8" width="1418.4" height="50.4"/>
    </clipPath>
    <clipPath id="clippath-5">
      <rect class="cls-1" x="10.8" y="10.8" width="1418.4" height="50.4"/>
    </clipPath>
    <clipPath id="clippath-6">
      <rect class="cls-1" x="10.8" y="10.8" width="1418.4" height="50.4"/>
    </clipPath>
    <clipPath id="clippath-7">
      <rect class="cls-1" x="10.8" y="10.8" width="1418.4" height="50.4"/>
    </clipPath>
  </defs>
  <!-- Generator: Adobe Illustrator 28.7.7, SVG Export Plug-In . SVG Version: 1.2.0 Build 194)  -->
  <g>
    <g id="Layer_1">
      <g class="cls-16">
        <path class="cls-14" d="M10.8,61.2h70.9V10.8H10.8v50.4Z"/>
      </g>
      <g class="cls-4">
        <path class="cls-12" d="M81.7,61.2h70.9V10.8h-70.9v50.4Z"/>
      </g>
      <g class="cls-7">
        <path class="cls-12" d="M152.6,61.2h70.9V10.8h-70.9v50.4Z"/>
      </g>
      <g class="cls-5">
        <path class="cls-3" d="M223.6,61.2h70.9V10.8h-70.9v50.4Z"/>
      </g>
      <g class="cls-6">
        <path class="cls-13" d="M294.5,61.2h70.9V10.8h-70.9v50.4Z"/>
      </g>
      <g class="cls-10">
        <path class="cls-15" d="M365.4,61.2h70.9V10.8h-70.9v50.4Z"/>
      </g>
      <g class="cls-9">
        <path class="cls-11" d="M436.3,61.2h70.9V10.8h-70.9v50.4Z"/>
      </g>
      <g class="cls-8">
        <path class="cls-2" d="M507.2,61.2h70.9V10.8h-70.9v50.4Z"/>
      </g>
    </g>
  </g>
</svg>
